assets/sprites/chars/OnlineLUTCreator.cube
#Generated by wwww.onlinelutcreator.com 
LUT_3D_SIZE 8 
DOMAIN_MIN 0.000000 0.000000 0.000000
DOMAIN_MAX 0.903226 0.903226 0.903226
0.000000 0.000000 0.000000
0.109804 0.000000 0.000000
0.207843 0.000000 0.000000
0.286275 0.000000 0.000000
0.360784 0.000000 0.000000
0.450980 0.000000 0.000000
0.576471 0.000000 0.000000
0.764706 0.000000 0.000000
0.000000 0.039216 0.000000
0.109804 0.039216 0.000000
0.207843 0.039216 0.000000
0.286275 0.039216 0.000000
0.360784 0.039216 0.000000
0.450980 0.039216 0.000000
0.576471 0.039216 0.000000
0.764706 0.039216 0.000000
0.000000 0.086275 0.000000
0.109804 0.086275 0.000000
0.207843 0.086275 0.000000
0.286275 0.086275 0.000000
0.360784 0.086275 0.000000
0.450980 0.086275 0.000000
0.576471 0.086275 0.000000
0.764706 0.086275 0.000000
0.000000 0.137255 0.000000
0.109804 0.137255 0.000000
0.207843 0.137255 0.000000
0.286275 0.137255 0.000000
0.360784 0.137255 0.000000
0.450980 0.137255 0.000000
0.576471 0.137255 0.000000
0.764706 0.137255 0.000000
0.000000 0.207843 0.000000
0.109804 0.207843 0.000000
0.207843 0.207843 0.000000
0.286275 0.207843 0.000000
0.360784 0.207843 0.000000
0.450980 0.207843 0.000000
0.576471 0.207843 0.000000
0.764706 0.207843 0.000000
0.000000 0.305882 0.000000
0.109804 0.305882 0.000000
0.207843 0.305882 0.000000
0.286275 0.305882 0.000000
0.360784 0.305882 0.000000
0.450980 0.305882 0.000000
0.576471 0.305882 0.000000
0.764706 0.305882 0.000000
0.000000 0.458824 0.000000
0.109804 0.458824 0.000000
0.207843 0.458824 0.000000
0.286275 0.458824 0.000000
0.360784 0.458824 0.000000
0.450980 0.458824 0.000000
0.576471 0.458824 0.000000
0.764706 0.458824 0.000000
0.000000 0.705882 0.000000
0.109804 0.705882 0.000000
0.207843 0.705882 0.000000
0.286275 0.705882 0.000000
0.360784 0.705882 0.000000
0.450980 0.705882 0.000000
0.576471 0.705882 0.000000
0.764706 0.705882 0.000000
0.000000 0.000000 0.188235
0.109804 0.000000 0.188235
0.207843 0.000000 0.188235
0.286275 0.000000 0.188235
0.360784 0.000000 0.188235
0.450980 0.000000 0.188235
0.576471 0.000000 0.188235
0.764706 0.000000 0.188235
0.000000 0.039216 0.188235
0.109804 0.039216 0.188235
0.207843 0.039216 0.188235
0.286275 0.039216 0.188235
0.360784 0.039216 0.188235
0.450980 0.039216 0.188235
0.576471 0.039216 0.188235
0.764706 0.039216 0.188235
0.000000 0.086275 0.188235
0.109804 0.086275 0.188235
0.207843 0.086275 0.188235
0.286275 0.086275 0.188235
0.360784 0.086275 0.188235
0.450980 0.086275 0.188235
0.576471 0.086275 0.188235
0.764706 0.086275 0.188235
0.000000 0.137255 0.188235
0.109804 0.137255 0.188235
0.207843 0.137255 0.188235
0.286275 0.137255 0.188235
0.360784 0.137255 0.188235
0.450980 0.137255 0.188235
0.576471 0.137255 0.188235
0.764706 0.137255 0.188235
0.000000 0.207843 0.188235
0.109804 0.207843 0.188235
0.207843 0.207843 0.188235
0.286275 0.207843 0.188235
0.360784 0.207843 0.188235
0.450980 0.207843 0.188235
0.576471 0.207843 0.188235
0.764706 0.207843 0.188235
0.000000 0.305882 0.188235
0.109804 0.305882 0.188235
0.207843 0.305882 0.188235
0.286275 0.305882 0.188235
0.360784 0.305882 0.188235
0.450980 0.305882 0.188235
0.576471 0.305882 0.188235
0.764706 0.305882 0.188235
0.000000 0.458824 0.188235
0.109804 0.458824 0.188235
0.207843 0.458824 0.188235
0.286275 0.458824 0.188235
0.360784 0.458824 0.188235
0.450980 0.458824 0.188235
0.576471 0.458824 0.188235
0.764706 0.458824 0.188235
0.000000 0.705882 0.188235
0.109804 0.705882 0.188235
0.207843 0.705882 0.188235
0.286275 0.705882 0.188235
0.360784 0.705882 0.188235
0.450980 0.705882 0.188235
0.576471 0.705882 0.188235
0.764706 0.705882 0.188235
0.000000 0.000000 0.345098
0.109804 0.000000 0.345098
0.207843 0.000000 0.345098
0.286275 0.000000 0.345098
0.360784 0.000000 0.345098
0.450980 0.000000 0.345098
0.576471 0.000000 0.345098
0.764706 0.000000 0.345098
0.000000 0.039216 0.345098
0.109804 0.039216 0.345098
0.207843 0.039216 0.345098
0.286275 0.039216 0.345098
0.360784 0.039216 0.345098
0.450980 0.039216 0.345098
0.576471 0.039216 0.345098
0.764706 0.039216 0.345098
0.000000 0.086275 0.345098
0.109804 0.086275 0.345098
0.207843 0.086275 0.345098
0.286275 0.086275 0.345098
0.360784 0.086275 0.345098
0.450980 0.086275 0.345098
0.576471 0.086275 0.345098
0.764706 0.086275 0.345098
0.000000 0.137255 0.345098
0.109804 0.137255 0.345098
0.207843 0.137255 0.345098
0.286275 0.137255 0.345098
0.360784 0.137255 0.345098
0.450980 0.137255 0.345098
0.576471 0.137255 0.345098
0.764706 0.137255 0.345098
0.000000 0.207843 0.345098
0.109804 0.207843 0.345098
0.207843 0.207843 0.345098
0.286275 0.207843 0.345098
0.360784 0.207843 0.345098
0.450980 0.207843 0.345098
0.576471 0.207843 0.345098
0.764706 0.207843 0.345098
0.000000 0.305882 0.345098
0.109804 0.305882 0.345098
0.207843 0.305882 0.345098
0.286275 0.305882 0.345098
0.360784 0.305882 0.345098
0.450980 0.305882 0.345098
0.576471 0.305882 0.345098
0.764706 0.305882 0.345098
0.000000 0.458824 0.345098
0.109804 0.458824 0.345098
0.207843 0.458824 0.345098
0.286275 0.458824 0.345098
0.360784 0.458824 0.345098
0.450980 0.458824 0.345098
0.576471 0.458824 0.345098
0.764706 0.458824 0.345098
0.000000 0.705882 0.345098
0.109804 0.705882 0.345098
0.207843 0.705882 0.345098
0.286275 0.705882 0.345098
0.360784 0.705882 0.345098
0.450980 0.705882 0.345098
0.576471 0.705882 0.345098
0.764706 0.705882 0.345098
0.000000 0.000000 0.458824
0.109804 0.000000 0.458824
0.207843 0.000000 0.458824
0.286275 0.000000 0.458824
0.360784 0.000000 0.458824
0.450980 0.000000 0.458824
0.576471 0.000000 0.458824
0.764706 0.000000 0.458824
0.000000 0.039216 0.458824
0.109804 0.039216 0.458824
0.207843 0.039216 0.458824
0.286275 0.039216 0.458824
0.360784 0.039216 0.458824
0.450980 0.039216 0.458824
0.576471 0.039216 0.458824
0.764706 0.039216 0.458824
0.000000 0.086275 0.458824
0.109804 0.086275 0.458824
0.207843 0.086275 0.458824
0.286275 0.086275 0.458824
0.360784 0.086275 0.458824
0.450980 0.086275 0.458824
0.576471 0.086275 0.458824
0.764706 0.086275 0.458824
0.000000 0.137255 0.458824
0.109804 0.137255 0.458824
0.207843 0.137255 0.458824
0.286275 0.137255 0.458824
0.360784 0.137255 0.458824
0.450980 0.137255 0.458824
0.576471 0.137255 0.458824
0.764706 0.137255 0.458824
0.000000 0.207843 0.458824
0.109804 0.207843 0.458824
0.207843 0.207843 0.458824
0.286275 0.207843 0.458824
0.360784 0.207843 0.458824
0.450980 0.207843 0.458824
0.576471 0.207843 0.458824
0.764706 0.207843 0.458824
0.000000 0.305882 0.458824
0.109804 0.305882 0.458824
0.207843 0.305882 0.458824
0.286275 0.305882 0.458824
0.360784 0.305882 0.458824
0.450980 0.305882 0.458824
0.576471 0.305882 0.458824
0.764706 0.305882 0.458824
0.000000 0.458824 0.458824
0.109804 0.458824 0.458824
0.207843 0.458824 0.458824
0.286275 0.458824 0.458824
0.360784 0.458824 0.458824
0.450980 0.458824 0.458824
0.576471 0.458824 0.458824
0.764706 0.458824 0.458824
0.000000 0.705882 0.458824
0.109804 0.705882 0.458824
0.207843 0.705882 0.458824
0.286275 0.705882 0.458824
0.360784 0.705882 0.458824
0.450980 0.705882 0.458824
0.576471 0.705882 0.458824
0.764706 0.705882 0.458824
0.000000 0.000000 0.545098
0.109804 0.000000 0.545098
0.207843 0.000000 0.545098
0.286275 0.000000 0.545098
0.360784 0.000000 0.545098
0.450980 0.000000 0.545098
0.576471 0.000000 0.545098
0.764706 0.000000 0.545098
0.000000 0.039216 0.545098
0.109804 0.039216 0.545098
0.207843 0.039216 0.545098
0.286275 0.039216 0.545098
0.360784 0.039216 0.545098
0.450980 0.039216 0.545098
0.576471 0.039216 0.545098
0.764706 0.039216 0.545098
0.000000 0.086275 0.545098
0.109804 0.086275 0.545098
0.207843 0.086275 0.545098
0.286275 0.086275 0.545098
0.360784 0.086275 0.545098
0.450980 0.086275 0.545098
0.576471 0.086275 0.545098
0.764706 0.086275 0.545098
0.000000 0.137255 0.545098
0.109804 0.137255 0.545098
0.207843 0.137255 0.545098
0.286275 0.137255 0.545098
0.360784 0.137255 0.545098
0.450980 0.137255 0.545098
0.576471 0.137255 0.545098
0.764706 0.137255 0.545098
0.000000 0.207843 0.545098
0.109804 0.207843 0.545098
0.207843 0.207843 0.545098
0.286275 0.207843 0.545098
0.360784 0.207843 0.545098
0.450980 0.207843 0.545098
0.576471 0.207843 0.545098
0.764706 0.207843 0.545098
0.000000 0.305882 0.545098
0.109804 0.305882 0.545098
0.207843 0.305882 0.545098
0.286275 0.305882 0.545098
0.360784 0.305882 0.545098
0.450980 0.305882 0.545098
0.576471 0.305882 0.545098
0.764706 0.305882 0.545098
0.000000 0.458824 0.545098
0.109804 0.458824 0.545098
0.207843 0.458824 0.545098
0.286275 0.458824 0.545098
0.360784 0.458824 0.545098
0.450980 0.458824 0.545098
0.576471 0.458824 0.545098
0.764706 0.458824 0.545098
0.000000 0.705882 0.545098
0.109804 0.705882 0.545098
0.207843 0.705882 0.545098
0.286275 0.705882 0.545098
0.360784 0.705882 0.545098
0.450980 0.705882 0.545098
0.576471 0.705882 0.545098
0.764706 0.705882 0.545098
0.000000 0.000000 0.627451
0.109804 0.000000 0.627451
0.207843 0.000000 0.627451
0.286275 0.000000 0.627451
0.360784 0.000000 0.627451
0.450980 0.000000 0.627451
0.576471 0.000000 0.627451
0.764706 0.000000 0.627451
0.000000 0.039216 0.627451
0.109804 0.039216 0.627451
0.207843 0.039216 0.627451
0.286275 0.039216 0.627451
0.360784 0.039216 0.627451
0.450980 0.039216 0.627451
0.576471 0.039216 0.627451
0.764706 0.039216 0.627451
0.000000 0.086275 0.627451
0.109804 0.086275 0.627451
0.207843 0.086275 0.627451
0.286275 0.086275 0.627451
0.360784 0.086275 0.627451
0.450980 0.086275 0.627451
0.576471 0.086275 0.627451
0.764706 0.086275 0.627451
0.000000 0.137255 0.627451
0.109804 0.137255 0.627451
0.207843 0.137255 0.627451
0.286275 0.137255 0.627451
0.360784 0.137255 0.627451
0.450980 0.137255 0.627451
0.576471 0.137255 0.627451
0.764706 0.137255 0.627451
0.000000 0.207843 0.627451
0.109804 0.207843 0.627451
0.207843 0.207843 0.627451
0.286275 0.207843 0.627451
0.360784 0.207843 0.627451
0.450980 0.207843 0.627451
0.576471 0.207843 0.627451
0.764706 0.207843 0.627451
0.000000 0.305882 0.627451
0.109804 0.305882 0.627451
0.207843 0.305882 0.627451
0.286275 0.305882 0.627451
0.360784 0.305882 0.627451
0.450980 0.305882 0.627451
0.576471 0.305882 0.627451
0.764706 0.305882 0.627451
0.000000 0.458824 0.627451
0.109804 0.458824 0.627451
0.207843 0.458824 0.627451
0.286275 0.458824 0.627451
0.360784 0.458824 0.627451
0.450980 0.458824 0.627451
0.576471 0.458824 0.627451
0.764706 0.458824 0.627451
0.000000 0.705882 0.627451
0.109804 0.705882 0.627451
0.207843 0.705882 0.627451
0.286275 0.705882 0.627451
0.360784 0.705882 0.627451
0.450980 0.705882 0.627451
0.576471 0.705882 0.627451
0.764706 0.705882 0.627451
0.000000 0.000000 0.725490
0.109804 0.000000 0.725490
0.207843 0.000000 0.725490
0.286275 0.000000 0.725490
0.360784 0.000000 0.725490
0.450980 0.000000 0.725490
0.576471 0.000000 0.725490
0.764706 0.000000 0.725490
0.000000 0.039216 0.725490
0.109804 0.039216 0.725490
0.207843 0.039216 0.725490
0.286275 0.039216 0.725490
0.360784 0.039216 0.725490
0.450980 0.039216 0.725490
0.576471 0.039216 0.725490
0.764706 0.039216 0.725490
0.000000 0.086275 0.725490
0.109804 0.086275 0.725490
0.207843 0.086275 0.725490
0.286275 0.086275 0.725490
0.360784 0.086275 0.725490
0.450980 0.086275 0.725490
0.576471 0.086275 0.725490
0.764706 0.086275 0.725490
0.000000 0.137255 0.725490
0.109804 0.137255 0.725490
0.207843 0.137255 0.725490
0.286275 0.137255 0.725490
0.360784 0.137255 0.725490
0.450980 0.137255 0.725490
0.576471 0.137255 0.725490
0.764706 0.137255 0.725490
0.000000 0.207843 0.725490
0.109804 0.207843 0.725490
0.207843 0.207843 0.725490
0.286275 0.207843 0.725490
0.360784 0.207843 0.725490
0.450980 0.207843 0.725490
0.576471 0.207843 0.725490
0.764706 0.207843 0.725490
0.000000 0.305882 0.725490
0.109804 0.305882 0.725490
0.207843 0.305882 0.725490
0.286275 0.305882 0.725490
0.360784 0.305882 0.725490
0.450980 0.305882 0.725490
0.576471 0.305882 0.725490
0.764706 0.305882 0.725490
0.000000 0.458824 0.725490
0.109804 0.458824 0.725490
0.207843 0.458824 0.725490
0.286275 0.458824 0.725490
0.360784 0.458824 0.725490
0.450980 0.458824 0.725490
0.576471 0.458824 0.725490
0.764706 0.458824 0.725490
0.000000 0.705882 0.725490
0.109804 0.705882 0.725490
0.207843 0.705882 0.725490
0.286275 0.705882 0.725490
0.360784 0.705882 0.725490
0.450980 0.705882 0.725490
0.576471 0.705882 0.725490
0.764706 0.705882 0.725490
0.000000 0.000000 0.858824
0.109804 0.000000 0.858824
0.207843 0.000000 0.858824
0.286275 0.000000 0.858824
0.360784 0.000000 0.858824
0.450980 0.000000 0.858824
0.576471 0.000000 0.858824
0.764706 0.000000 0.858824
0.000000 0.039216 0.858824
0.109804 0.039216 0.858824
0.207843 0.039216 0.858824
0.286275 0.039216 0.858824
0.360784 0.039216 0.858824
0.450980 0.039216 0.858824
0.576471 0.039216 0.858824
0.764706 0.039216 0.858824
0.000000 0.086275 0.858824
0.109804 0.086275 0.858824
0.207843 0.086275 0.858824
0.286275 0.086275 0.858824
0.360784 0.086275 0.858824
0.450980 0.086275 0.858824
0.576471 0.086275 0.858824
0.764706 0.086275 0.858824
0.000000 0.137255 0.858824
0.109804 0.137255 0.858824
0.207843 0.137255 0.858824
0.286275 0.137255 0.858824
0.360784 0.137255 0.858824
0.450980 0.137255 0.858824
0.576471 0.137255 0.858824
0.764706 0.137255 0.858824
0.000000 0.207843 0.858824
0.109804 0.207843 0.858824
0.207843 0.207843 0.858824
0.286275 0.207843 0.858824
0.360784 0.207843 0.858824
0.450980 0.207843 0.858824
0.576471 0.207843 0.858824
0.764706 0.207843 0.858824
0.000000 0.305882 0.858824
0.109804 0.305882 0.858824
0.207843 0.305882 0.858824
0.286275 0.305882 0.858824
0.360784 0.305882 0.858824
0.450980 0.305882 0.858824
0.576471 0.305882 0.858824
0.764706 0.305882 0.858824
0.000000 0.458824 0.858824
0.109804 0.458824 0.858824
0.207843 0.458824 0.858824
0.286275 0.458824 0.858824
0.360784 0.458824 0.858824
0.450980 0.458824 0.858824
0.576471 0.458824 0.858824
0.764706 0.458824 0.858824
0.000000 0.705882 0.858824
0.109804 0.705882 0.858824
0.207843 0.705882 0.858824
0.286275 0.705882 0.858824
0.360784 0.705882 0.858824
0.450980 0.705882 0.858824
0.576471 0.705882 0.858824
0.764706 0.705882 0.858824
