assets/sprites/chars/OnlineLUTCreator.cube
#Generated by wwww.onlinelutcreator.com 
LUT_3D_SIZE 32 
0.000000 0.000000 0.000000
0.027451 0.000000 0.000000
0.054902 0.000000 0.000000
0.082353 0.000000 0.000000
0.109804 0.000000 0.000000
0.137255 0.000000 0.000000
0.160784 0.000000 0.000000
0.188235 0.000000 0.000000
0.207843 0.000000 0.000000
0.231373 0.000000 0.000000
0.250980 0.000000 0.000000
0.266667 0.000000 0.000000
0.286275 0.000000 0.000000
0.305882 0.000000 0.000000
0.321569 0.000000 0.000000
0.341176 0.000000 0.000000
0.360784 0.000000 0.000000
0.380392 0.000000 0.000000
0.400000 0.000000 0.000000
0.423529 0.000000 0.000000
0.450980 0.000000 0.000000
0.478431 0.000000 0.000000
0.505882 0.000000 0.000000
0.541176 0.000000 0.000000
0.576471 0.000000 0.000000
0.619608 0.000000 0.000000
0.662745 0.000000 0.000000
0.709804 0.000000 0.000000
0.764706 0.000000 0.000000
0.823529 0.000000 0.000000
0.882353 0.000000 0.000000
0.945098 0.000000 0.000000
0.000000 0.007843 0.000000
0.027451 0.007843 0.000000
0.054902 0.007843 0.000000
0.082353 0.007843 0.000000
0.109804 0.007843 0.000000
0.137255 0.007843 0.000000
0.160784 0.007843 0.000000
0.188235 0.007843 0.000000
0.207843 0.007843 0.000000
0.231373 0.007843 0.000000
0.250980 0.007843 0.000000
0.266667 0.007843 0.000000
0.286275 0.007843 0.000000
0.305882 0.007843 0.000000
0.321569 0.007843 0.000000
0.341176 0.007843 0.000000
0.360784 0.007843 0.000000
0.380392 0.007843 0.000000
0.400000 0.007843 0.000000
0.423529 0.007843 0.000000
0.450980 0.007843 0.000000
0.478431 0.007843 0.000000
0.505882 0.007843 0.000000
0.541176 0.007843 0.000000
0.576471 0.007843 0.000000
0.619608 0.007843 0.000000
0.662745 0.007843 0.000000
0.709804 0.007843 0.000000
0.764706 0.007843 0.000000
0.823529 0.007843 0.000000
0.882353 0.007843 0.000000
0.945098 0.007843 0.000000
0.000000 0.019608 0.000000
0.027451 0.019608 0.000000
0.054902 0.019608 0.000000
0.082353 0.019608 0.000000
0.109804 0.019608 0.000000
0.137255 0.019608 0.000000
0.160784 0.019608 0.000000
0.188235 0.019608 0.000000
0.207843 0.019608 0.000000
0.231373 0.019608 0.000000
0.250980 0.019608 0.000000
0.266667 0.019608 0.000000
0.286275 0.019608 0.000000
0.305882 0.019608 0.000000
0.321569 0.019608 0.000000
0.341176 0.019608 0.000000
0.360784 0.019608 0.000000
0.380392 0.019608 0.000000
0.400000 0.019608 0.000000
0.423529 0.019608 0.000000
0.450980 0.019608 0.000000
0.478431 0.019608 0.000000
0.505882 0.019608 0.000000
0.541176 0.019608 0.000000
0.576471 0.019608 0.000000
0.619608 0.019608 0.000000
0.662745 0.019608 0.000000
0.709804 0.019608 0.000000
0.764706 0.019608 0.000000
0.823529 0.019608 0.000000
0.882353 0.019608 0.000000
0.945098 0.019608 0.000000
0.000000 0.031373 0.000000
0.027451 0.031373 0.000000
0.054902 0.031373 0.000000
0.082353 0.031373 0.000000
0.109804 0.031373 0.000000
0.137255 0.031373 0.000000
0.160784 0.031373 0.000000
0.188235 0.031373 0.000000
0.207843 0.031373 0.000000
0.231373 0.031373 0.000000
0.250980 0.031373 0.000000
0.266667 0.031373 0.000000
0.286275 0.031373 0.000000
0.305882 0.031373 0.000000
0.321569 0.031373 0.000000
0.341176 0.031373 0.000000
0.360784 0.031373 0.000000
0.380392 0.031373 0.000000
0.400000 0.031373 0.000000
0.423529 0.031373 0.000000
0.450980 0.031373 0.000000
0.478431 0.031373 0.000000
0.505882 0.031373 0.000000
0.541176 0.031373 0.000000
0.576471 0.031373 0.000000
0.619608 0.031373 0.000000
0.662745 0.031373 0.000000
0.709804 0.031373 0.000000
0.764706 0.031373 0.000000
0.823529 0.031373 0.000000
0.882353 0.031373 0.000000
0.945098 0.031373 0.000000
0.000000 0.039216 0.000000
0.027451 0.039216 0.000000
0.054902 0.039216 0.000000
0.082353 0.039216 0.000000
0.109804 0.039216 0.000000
0.137255 0.039216 0.000000
0.160784 0.039216 0.000000
0.188235 0.039216 0.000000
0.207843 0.039216 0.000000
0.231373 0.039216 0.000000
0.250980 0.039216 0.000000
0.266667 0.039216 0.000000
0.286275 0.039216 0.000000
0.305882 0.039216 0.000000
0.321569 0.039216 0.000000
0.341176 0.039216 0.000000
0.360784 0.039216 0.000000
0.380392 0.039216 0.000000
0.400000 0.039216 0.000000
0.423529 0.039216 0.000000
0.450980 0.039216 0.000000
0.478431 0.039216 0.000000
0.505882 0.039216 0.000000
0.541176 0.039216 0.000000
0.576471 0.039216 0.000000
0.619608 0.039216 0.000000
0.662745 0.039216 0.000000
0.709804 0.039216 0.000000
0.764706 0.039216 0.000000
0.823529 0.039216 0.000000
0.882353 0.039216 0.000000
0.945098 0.039216 0.000000
0.000000 0.050980 0.000000
0.027451 0.050980 0.000000
0.054902 0.050980 0.000000
0.082353 0.050980 0.000000
0.109804 0.050980 0.000000
0.137255 0.050980 0.000000
0.160784 0.050980 0.000000
0.188235 0.050980 0.000000
0.207843 0.050980 0.000000
0.231373 0.050980 0.000000
0.250980 0.050980 0.000000
0.266667 0.050980 0.000000
0.286275 0.050980 0.000000
0.305882 0.050980 0.000000
0.321569 0.050980 0.000000
0.341176 0.050980 0.000000
0.360784 0.050980 0.000000
0.380392 0.050980 0.000000
0.400000 0.050980 0.000000
0.423529 0.050980 0.000000
0.450980 0.050980 0.000000
0.478431 0.050980 0.000000
0.505882 0.050980 0.000000
0.541176 0.050980 0.000000
0.576471 0.050980 0.000000
0.619608 0.050980 0.000000
0.662745 0.050980 0.000000
0.709804 0.050980 0.000000
0.764706 0.050980 0.000000
0.823529 0.050980 0.000000
0.882353 0.050980 0.000000
0.945098 0.050980 0.000000
0.000000 0.062745 0.000000
0.027451 0.062745 0.000000
0.054902 0.062745 0.000000
0.082353 0.062745 0.000000
0.109804 0.062745 0.000000
0.137255 0.062745 0.000000
0.160784 0.062745 0.000000
0.188235 0.062745 0.000000
0.207843 0.062745 0.000000
0.231373 0.062745 0.000000
0.250980 0.062745 0.000000
0.266667 0.062745 0.000000
0.286275 0.062745 0.000000
0.305882 0.062745 0.000000
0.321569 0.062745 0.000000
0.341176 0.062745 0.000000
0.360784 0.062745 0.000000
0.380392 0.062745 0.000000
0.400000 0.062745 0.000000
0.423529 0.062745 0.000000
0.450980 0.062745 0.000000
0.478431 0.062745 0.000000
0.505882 0.062745 0.000000
0.541176 0.062745 0.000000
0.576471 0.062745 0.000000
0.619608 0.062745 0.000000
0.662745 0.062745 0.000000
0.709804 0.062745 0.000000
0.764706 0.062745 0.000000
0.823529 0.062745 0.000000
0.882353 0.062745 0.000000
0.945098 0.062745 0.000000
0.000000 0.074510 0.000000
0.027451 0.074510 0.000000
0.054902 0.074510 0.000000
0.082353 0.074510 0.000000
0.109804 0.074510 0.000000
0.137255 0.074510 0.000000
0.160784 0.074510 0.000000
0.188235 0.074510 0.000000
0.207843 0.074510 0.000000
0.231373 0.074510 0.000000
0.250980 0.074510 0.000000
0.266667 0.074510 0.000000
0.286275 0.074510 0.000000
0.305882 0.074510 0.000000
0.321569 0.074510 0.000000
0.341176 0.074510 0.000000
0.360784 0.074510 0.000000
0.380392 0.074510 0.000000
0.400000 0.074510 0.000000
0.423529 0.074510 0.000000
0.450980 0.074510 0.000000
0.478431 0.074510 0.000000
0.505882 0.074510 0.000000
0.541176 0.074510 0.000000
0.576471 0.074510 0.000000
0.619608 0.074510 0.000000
0.662745 0.074510 0.000000
0.709804 0.074510 0.000000
0.764706 0.074510 0.000000
0.823529 0.074510 0.000000
0.882353 0.074510 0.000000
0.945098 0.074510 0.000000
0.000000 0.086275 0.000000
0.027451 0.086275 0.000000
0.054902 0.086275 0.000000
0.082353 0.086275 0.000000
0.109804 0.086275 0.000000
0.137255 0.086275 0.000000
0.160784 0.086275 0.000000
0.188235 0.086275 0.000000
0.207843 0.086275 0.000000
0.231373 0.086275 0.000000
0.250980 0.086275 0.000000
0.266667 0.086275 0.000000
0.286275 0.086275 0.000000
0.305882 0.086275 0.000000
0.321569 0.086275 0.000000
0.341176 0.086275 0.000000
0.360784 0.086275 0.000000
0.380392 0.086275 0.000000
0.400000 0.086275 0.000000
0.423529 0.086275 0.000000
0.450980 0.086275 0.000000
0.478431 0.086275 0.000000
0.505882 0.086275 0.000000
0.541176 0.086275 0.000000
0.576471 0.086275 0.000000
0.619608 0.086275 0.000000
0.662745 0.086275 0.000000
0.709804 0.086275 0.000000
0.764706 0.086275 0.000000
0.823529 0.086275 0.000000
0.882353 0.086275 0.000000
0.945098 0.086275 0.000000
0.000000 0.098039 0.000000
0.027451 0.098039 0.000000
0.054902 0.098039 0.000000
0.082353 0.098039 0.000000
0.109804 0.098039 0.000000
0.137255 0.098039 0.000000
0.160784 0.098039 0.000000
0.188235 0.098039 0.000000
0.207843 0.098039 0.000000
0.231373 0.098039 0.000000
0.250980 0.098039 0.000000
0.266667 0.098039 0.000000
0.286275 0.098039 0.000000
0.305882 0.098039 0.000000
0.321569 0.098039 0.000000
0.341176 0.098039 0.000000
0.360784 0.098039 0.000000
0.380392 0.098039 0.000000
0.400000 0.098039 0.000000
0.423529 0.098039 0.000000
0.450980 0.098039 0.000000
0.478431 0.098039 0.000000
0.505882 0.098039 0.000000
0.541176 0.098039 0.000000
0.576471 0.098039 0.000000
0.619608 0.098039 0.000000
0.662745 0.098039 0.000000
0.709804 0.098039 0.000000
0.764706 0.098039 0.000000
0.823529 0.098039 0.000000
0.882353 0.098039 0.000000
0.945098 0.098039 0.000000
0.000000 0.109804 0.000000
0.027451 0.109804 0.000000
0.054902 0.109804 0.000000
0.082353 0.109804 0.000000
0.109804 0.109804 0.000000
0.137255 0.109804 0.000000
0.160784 0.109804 0.000000
0.188235 0.109804 0.000000
0.207843 0.109804 0.000000
0.231373 0.109804 0.000000
0.250980 0.109804 0.000000
0.266667 0.109804 0.000000
0.286275 0.109804 0.000000
0.305882 0.109804 0.000000
0.321569 0.109804 0.000000
0.341176 0.109804 0.000000
0.360784 0.109804 0.000000
0.380392 0.109804 0.000000
0.400000 0.109804 0.000000
0.423529 0.109804 0.000000
0.450980 0.109804 0.000000
0.478431 0.109804 0.000000
0.505882 0.109804 0.000000
0.541176 0.109804 0.000000
0.576471 0.109804 0.000000
0.619608 0.109804 0.000000
0.662745 0.109804 0.000000
0.709804 0.109804 0.000000
0.764706 0.109804 0.000000
0.823529 0.109804 0.000000
0.882353 0.109804 0.000000
0.945098 0.109804 0.000000
0.000000 0.125490 0.000000
0.027451 0.125490 0.000000
0.054902 0.125490 0.000000
0.082353 0.125490 0.000000
0.109804 0.125490 0.000000
0.137255 0.125490 0.000000
0.160784 0.125490 0.000000
0.188235 0.125490 0.000000
0.207843 0.125490 0.000000
0.231373 0.125490 0.000000
0.250980 0.125490 0.000000
0.266667 0.125490 0.000000
0.286275 0.125490 0.000000
0.305882 0.125490 0.000000
0.321569 0.125490 0.000000
0.341176 0.125490 0.000000
0.360784 0.125490 0.000000
0.380392 0.125490 0.000000
0.400000 0.125490 0.000000
0.423529 0.125490 0.000000
0.450980 0.125490 0.000000
0.478431 0.125490 0.000000
0.505882 0.125490 0.000000
0.541176 0.125490 0.000000
0.576471 0.125490 0.000000
0.619608 0.125490 0.000000
0.662745 0.125490 0.000000
0.709804 0.125490 0.000000
0.764706 0.125490 0.000000
0.823529 0.125490 0.000000
0.882353 0.125490 0.000000
0.945098 0.125490 0.000000
0.000000 0.137255 0.000000
0.027451 0.137255 0.000000
0.054902 0.137255 0.000000
0.082353 0.137255 0.000000
0.109804 0.137255 0.000000
0.137255 0.137255 0.000000
0.160784 0.137255 0.000000
0.188235 0.137255 0.000000
0.207843 0.137255 0.000000
0.231373 0.137255 0.000000
0.250980 0.137255 0.000000
0.266667 0.137255 0.000000
0.286275 0.137255 0.000000
0.305882 0.137255 0.000000
0.321569 0.137255 0.000000
0.341176 0.137255 0.000000
0.360784 0.137255 0.000000
0.380392 0.137255 0.000000
0.400000 0.137255 0.000000
0.423529 0.137255 0.000000
0.450980 0.137255 0.000000
0.478431 0.137255 0.000000
0.505882 0.137255 0.000000
0.541176 0.137255 0.000000
0.576471 0.137255 0.000000
0.619608 0.137255 0.000000
0.662745 0.137255 0.000000
0.709804 0.137255 0.000000
0.764706 0.137255 0.000000
0.823529 0.137255 0.000000
0.882353 0.137255 0.000000
0.945098 0.137255 0.000000
0.000000 0.152941 0.000000
0.027451 0.152941 0.000000
0.054902 0.152941 0.000000
0.082353 0.152941 0.000000
0.109804 0.152941 0.000000
0.137255 0.152941 0.000000
0.160784 0.152941 0.000000
0.188235 0.152941 0.000000
0.207843 0.152941 0.000000
0.231373 0.152941 0.000000
0.250980 0.152941 0.000000
0.266667 0.152941 0.000000
0.286275 0.152941 0.000000
0.305882 0.152941 0.000000
0.321569 0.152941 0.000000
0.341176 0.152941 0.000000
0.360784 0.152941 0.000000
0.380392 0.152941 0.000000
0.400000 0.152941 0.000000
0.423529 0.152941 0.000000
0.450980 0.152941 0.000000
0.478431 0.152941 0.000000
0.505882 0.152941 0.000000
0.541176 0.152941 0.000000
0.576471 0.152941 0.000000
0.619608 0.152941 0.000000
0.662745 0.152941 0.000000
0.709804 0.152941 0.000000
0.764706 0.152941 0.000000
0.823529 0.152941 0.000000
0.882353 0.152941 0.000000
0.945098 0.152941 0.000000
0.000000 0.172549 0.000000
0.027451 0.172549 0.000000
0.054902 0.172549 0.000000
0.082353 0.172549 0.000000
0.109804 0.172549 0.000000
0.137255 0.172549 0.000000
0.160784 0.172549 0.000000
0.188235 0.172549 0.000000
0.207843 0.172549 0.000000
0.231373 0.172549 0.000000
0.250980 0.172549 0.000000
0.266667 0.172549 0.000000
0.286275 0.172549 0.000000
0.305882 0.172549 0.000000
0.321569 0.172549 0.000000
0.341176 0.172549 0.000000
0.360784 0.172549 0.000000
0.380392 0.172549 0.000000
0.400000 0.172549 0.000000
0.423529 0.172549 0.000000
0.450980 0.172549 0.000000
0.478431 0.172549 0.000000
0.505882 0.172549 0.000000
0.541176 0.172549 0.000000
0.576471 0.172549 0.000000
0.619608 0.172549 0.000000
0.662745 0.172549 0.000000
0.709804 0.172549 0.000000
0.764706 0.172549 0.000000
0.823529 0.172549 0.000000
0.882353 0.172549 0.000000
0.945098 0.172549 0.000000
0.000000 0.188235 0.000000
0.027451 0.188235 0.000000
0.054902 0.188235 0.000000
0.082353 0.188235 0.000000
0.109804 0.188235 0.000000
0.137255 0.188235 0.000000
0.160784 0.188235 0.000000
0.188235 0.188235 0.000000
0.207843 0.188235 0.000000
0.231373 0.188235 0.000000
0.250980 0.188235 0.000000
0.266667 0.188235 0.000000
0.286275 0.188235 0.000000
0.305882 0.188235 0.000000
0.321569 0.188235 0.000000
0.341176 0.188235 0.000000
0.360784 0.188235 0.000000
0.380392 0.188235 0.000000
0.400000 0.188235 0.000000
0.423529 0.188235 0.000000
0.450980 0.188235 0.000000
0.478431 0.188235 0.000000
0.505882 0.188235 0.000000
0.541176 0.188235 0.000000
0.576471 0.188235 0.000000
0.619608 0.188235 0.000000
0.662745 0.188235 0.000000
0.709804 0.188235 0.000000
0.764706 0.188235 0.000000
0.823529 0.188235 0.000000
0.882353 0.188235 0.000000
0.945098 0.188235 0.000000
0.000000 0.207843 0.000000
0.027451 0.207843 0.000000
0.054902 0.207843 0.000000
0.082353 0.207843 0.000000
0.109804 0.207843 0.000000
0.137255 0.207843 0.000000
0.160784 0.207843 0.000000
0.188235 0.207843 0.000000
0.207843 0.207843 0.000000
0.231373 0.207843 0.000000
0.250980 0.207843 0.000000
0.266667 0.207843 0.000000
0.286275 0.207843 0.000000
0.305882 0.207843 0.000000
0.321569 0.207843 0.000000
0.341176 0.207843 0.000000
0.360784 0.207843 0.000000
0.380392 0.207843 0.000000
0.400000 0.207843 0.000000
0.423529 0.207843 0.000000
0.450980 0.207843 0.000000
0.478431 0.207843 0.000000
0.505882 0.207843 0.000000
0.541176 0.207843 0.000000
0.576471 0.207843 0.000000
0.619608 0.207843 0.000000
0.662745 0.207843 0.000000
0.709804 0.207843 0.000000
0.764706 0.207843 0.000000
0.823529 0.207843 0.000000
0.882353 0.207843 0.000000
0.945098 0.207843 0.000000
0.000000 0.227451 0.000000
0.027451 0.227451 0.000000
0.054902 0.227451 0.000000
0.082353 0.227451 0.000000
0.109804 0.227451 0.000000
0.137255 0.227451 0.000000
0.160784 0.227451 0.000000
0.188235 0.227451 0.000000
0.207843 0.227451 0.000000
0.231373 0.227451 0.000000
0.250980 0.227451 0.000000
0.266667 0.227451 0.000000
0.286275 0.227451 0.000000
0.305882 0.227451 0.000000
0.321569 0.227451 0.000000
0.341176 0.227451 0.000000
0.360784 0.227451 0.000000
0.380392 0.227451 0.000000
0.400000 0.227451 0.000000
0.423529 0.227451 0.000000
0.450980 0.227451 0.000000
0.478431 0.227451 0.000000
0.505882 0.227451 0.000000
0.541176 0.227451 0.000000
0.576471 0.227451 0.000000
0.619608 0.227451 0.000000
0.662745 0.227451 0.000000
0.709804 0.227451 0.000000
0.764706 0.227451 0.000000
0.823529 0.227451 0.000000
0.882353 0.227451 0.000000
0.945098 0.227451 0.000000
0.000000 0.250980 0.000000
0.027451 0.250980 0.000000
0.054902 0.250980 0.000000
0.082353 0.250980 0.000000
0.109804 0.250980 0.000000
0.137255 0.250980 0.000000
0.160784 0.250980 0.000000
0.188235 0.250980 0.000000
0.207843 0.250980 0.000000
0.231373 0.250980 0.000000
0.250980 0.250980 0.000000
0.266667 0.250980 0.000000
0.286275 0.250980 0.000000
0.305882 0.250980 0.000000
0.321569 0.250980 0.000000
0.341176 0.250980 0.000000
0.360784 0.250980 0.000000
0.380392 0.250980 0.000000
0.400000 0.250980 0.000000
0.423529 0.250980 0.000000
0.450980 0.250980 0.000000
0.478431 0.250980 0.000000
0.505882 0.250980 0.000000
0.541176 0.250980 0.000000
0.576471 0.250980 0.000000
0.619608 0.250980 0.000000
0.662745 0.250980 0.000000
0.709804 0.250980 0.000000
0.764706 0.250980 0.000000
0.823529 0.250980 0.000000
0.882353 0.250980 0.000000
0.945098 0.250980 0.000000
0.000000 0.274510 0.000000
0.027451 0.274510 0.000000
0.054902 0.274510 0.000000
0.082353 0.274510 0.000000
0.109804 0.274510 0.000000
0.137255 0.274510 0.000000
0.160784 0.274510 0.000000
0.188235 0.274510 0.000000
0.207843 0.274510 0.000000
0.231373 0.274510 0.000000
0.250980 0.274510 0.000000
0.266667 0.274510 0.000000
0.286275 0.274510 0.000000
0.305882 0.274510 0.000000
0.321569 0.274510 0.000000
0.341176 0.274510 0.000000
0.360784 0.274510 0.000000
0.380392 0.274510 0.000000
0.400000 0.274510 0.000000
0.423529 0.274510 0.000000
0.450980 0.274510 0.000000
0.478431 0.274510 0.000000
0.505882 0.274510 0.000000
0.541176 0.274510 0.000000
0.576471 0.274510 0.000000
0.619608 0.274510 0.000000
0.662745 0.274510 0.000000
0.709804 0.274510 0.000000
0.764706 0.274510 0.000000
0.823529 0.274510 0.000000
0.882353 0.274510 0.000000
0.945098 0.274510 0.000000
0.000000 0.305882 0.000000
0.027451 0.305882 0.000000
0.054902 0.305882 0.000000
0.082353 0.305882 0.000000
0.109804 0.305882 0.000000
0.137255 0.305882 0.000000
0.160784 0.305882 0.000000
0.188235 0.305882 0.000000
0.207843 0.305882 0.000000
0.231373 0.305882 0.000000
0.250980 0.305882 0.000000
0.266667 0.305882 0.000000
0.286275 0.305882 0.000000
0.305882 0.305882 0.000000
0.321569 0.305882 0.000000
0.341176 0.305882 0.000000
0.360784 0.305882 0.000000
0.380392 0.305882 0.000000
0.400000 0.305882 0.000000
0.423529 0.305882 0.000000
0.450980 0.305882 0.000000
0.478431 0.305882 0.000000
0.505882 0.305882 0.000000
0.541176 0.305882 0.000000
0.576471 0.305882 0.000000
0.619608 0.305882 0.000000
0.662745 0.305882 0.000000
0.709804 0.305882 0.000000
0.764706 0.305882 0.000000
0.823529 0.305882 0.000000
0.882353 0.305882 0.000000
0.945098 0.305882 0.000000
0.000000 0.337255 0.000000
0.027451 0.337255 0.000000
0.054902 0.337255 0.000000
0.082353 0.337255 0.000000
0.109804 0.337255 0.000000
0.137255 0.337255 0.000000
0.160784 0.337255 0.000000
0.188235 0.337255 0.000000
0.207843 0.337255 0.000000
0.231373 0.337255 0.000000
0.250980 0.337255 0.000000
0.266667 0.337255 0.000000
0.286275 0.337255 0.000000
0.305882 0.337255 0.000000
0.321569 0.337255 0.000000
0.341176 0.337255 0.000000
0.360784 0.337255 0.000000
0.380392 0.337255 0.000000
0.400000 0.337255 0.000000
0.423529 0.337255 0.000000
0.450980 0.337255 0.000000
0.478431 0.337255 0.000000
0.505882 0.337255 0.000000
0.541176 0.337255 0.000000
0.576471 0.337255 0.000000
0.619608 0.337255 0.000000
0.662745 0.337255 0.000000
0.709804 0.337255 0.000000
0.764706 0.337255 0.000000
0.823529 0.337255 0.000000
0.882353 0.337255 0.000000
0.945098 0.337255 0.000000
0.000000 0.372549 0.000000
0.027451 0.372549 0.000000
0.054902 0.372549 0.000000
0.082353 0.372549 0.000000
0.109804 0.372549 0.000000
0.137255 0.372549 0.000000
0.160784 0.372549 0.000000
0.188235 0.372549 0.000000
0.207843 0.372549 0.000000
0.231373 0.372549 0.000000
0.250980 0.372549 0.000000
0.266667 0.372549 0.000000
0.286275 0.372549 0.000000
0.305882 0.372549 0.000000
0.321569 0.372549 0.000000
0.341176 0.372549 0.000000
0.360784 0.372549 0.000000
0.380392 0.372549 0.000000
0.400000 0.372549 0.000000
0.423529 0.372549 0.000000
0.450980 0.372549 0.000000
0.478431 0.372549 0.000000
0.505882 0.372549 0.000000
0.541176 0.372549 0.000000
0.576471 0.372549 0.000000
0.619608 0.372549 0.000000
0.662745 0.372549 0.000000
0.709804 0.372549 0.000000
0.764706 0.372549 0.000000
0.823529 0.372549 0.000000
0.882353 0.372549 0.000000
0.945098 0.372549 0.000000
0.000000 0.415686 0.000000
0.027451 0.415686 0.000000
0.054902 0.415686 0.000000
0.082353 0.415686 0.000000
0.109804 0.415686 0.000000
0.137255 0.415686 0.000000
0.160784 0.415686 0.000000
0.188235 0.415686 0.000000
0.207843 0.415686 0.000000
0.231373 0.415686 0.000000
0.250980 0.415686 0.000000
0.266667 0.415686 0.000000
0.286275 0.415686 0.000000
0.305882 0.415686 0.000000
0.321569 0.415686 0.000000
0.341176 0.415686 0.000000
0.360784 0.415686 0.000000
0.380392 0.415686 0.000000
0.400000 0.415686 0.000000
0.423529 0.415686 0.000000
0.450980 0.415686 0.000000
0.478431 0.415686 0.000000
0.505882 0.415686 0.000000
0.541176 0.415686 0.000000
0.576471 0.415686 0.000000
0.619608 0.415686 0.000000
0.662745 0.415686 0.000000
0.709804 0.415686 0.000000
0.764706 0.415686 0.000000
0.823529 0.415686 0.000000
0.882353 0.415686 0.000000
0.945098 0.415686 0.000000
0.000000 0.458824 0.000000
0.027451 0.458824 0.000000
0.054902 0.458824 0.000000
0.082353 0.458824 0.000000
0.109804 0.458824 0.000000
0.137255 0.458824 0.000000
0.160784 0.458824 0.000000
0.188235 0.458824 0.000000
0.207843 0.458824 0.000000
0.231373 0.458824 0.000000
0.250980 0.458824 0.000000
0.266667 0.458824 0.000000
0.286275 0.458824 0.000000
0.305882 0.458824 0.000000
0.321569 0.458824 0.000000
0.341176 0.458824 0.000000
0.360784 0.458824 0.000000
0.380392 0.458824 0.000000
0.400000 0.458824 0.000000
0.423529 0.458824 0.000000
0.450980 0.458824 0.000000
0.478431 0.458824 0.000000
0.505882 0.458824 0.000000
0.541176 0.458824 0.000000
0.576471 0.458824 0.000000
0.619608 0.458824 0.000000
0.662745 0.458824 0.000000
0.709804 0.458824 0.000000
0.764706 0.458824 0.000000
0.823529 0.458824 0.000000
0.882353 0.458824 0.000000
0.945098 0.458824 0.000000
0.000000 0.513725 0.000000
0.027451 0.513725 0.000000
0.054902 0.513725 0.000000
0.082353 0.513725 0.000000
0.109804 0.513725 0.000000
0.137255 0.513725 0.000000
0.160784 0.513725 0.000000
0.188235 0.513725 0.000000
0.207843 0.513725 0.000000
0.231373 0.513725 0.000000
0.250980 0.513725 0.000000
0.266667 0.513725 0.000000
0.286275 0.513725 0.000000
0.305882 0.513725 0.000000
0.321569 0.513725 0.000000
0.341176 0.513725 0.000000
0.360784 0.513725 0.000000
0.380392 0.513725 0.000000
0.400000 0.513725 0.000000
0.423529 0.513725 0.000000
0.450980 0.513725 0.000000
0.478431 0.513725 0.000000
0.505882 0.513725 0.000000
0.541176 0.513725 0.000000
0.576471 0.513725 0.000000
0.619608 0.513725 0.000000
0.662745 0.513725 0.000000
0.709804 0.513725 0.000000
0.764706 0.513725 0.000000
0.823529 0.513725 0.000000
0.882353 0.513725 0.000000
0.945098 0.513725 0.000000
0.000000 0.572549 0.000000
0.027451 0.572549 0.000000
0.054902 0.572549 0.000000
0.082353 0.572549 0.000000
0.109804 0.572549 0.000000
0.137255 0.572549 0.000000
0.160784 0.572549 0.000000
0.188235 0.572549 0.000000
0.207843 0.572549 0.000000
0.231373 0.572549 0.000000
0.250980 0.572549 0.000000
0.266667 0.572549 0.000000
0.286275 0.572549 0.000000
0.305882 0.572549 0.000000
0.321569 0.572549 0.000000
0.341176 0.572549 0.000000
0.360784 0.572549 0.000000
0.380392 0.572549 0.000000
0.400000 0.572549 0.000000
0.423529 0.572549 0.000000
0.450980 0.572549 0.000000
0.478431 0.572549 0.000000
0.505882 0.572549 0.000000
0.541176 0.572549 0.000000
0.576471 0.572549 0.000000
0.619608 0.572549 0.000000
0.662745 0.572549 0.000000
0.709804 0.572549 0.000000
0.764706 0.572549 0.000000
0.823529 0.572549 0.000000
0.882353 0.572549 0.000000
0.945098 0.572549 0.000000
0.000000 0.635294 0.000000
0.027451 0.635294 0.000000
0.054902 0.635294 0.000000
0.082353 0.635294 0.000000
0.109804 0.635294 0.000000
0.137255 0.635294 0.000000
0.160784 0.635294 0.000000
0.188235 0.635294 0.000000
0.207843 0.635294 0.000000
0.231373 0.635294 0.000000
0.250980 0.635294 0.000000
0.266667 0.635294 0.000000
0.286275 0.635294 0.000000
0.305882 0.635294 0.000000
0.321569 0.635294 0.000000
0.341176 0.635294 0.000000
0.360784 0.635294 0.000000
0.380392 0.635294 0.000000
0.400000 0.635294 0.000000
0.423529 0.635294 0.000000
0.450980 0.635294 0.000000
0.478431 0.635294 0.000000
