assets/sprites/chars/OnlineLUTCreator.cube
#Generated by wwww.onlinelutcreator.com 
LUT_3D_SIZE 5 
DOMAIN_MIN 0.000000 0.000000 0.000000
DOMAIN_MAX 0.903226 0.903226 0.903226
0.000000 0.000000 0.000000
0.188235 0.000000 0.000000
0.321569 0.000000 0.000000
0.478431 0.000000 0.000000
0.764706 0.000000 0.000000
0.000000 0.074510 0.000000
0.188235 0.074510 0.000000
0.321569 0.074510 0.000000
0.478431 0.074510 0.000000
0.764706 0.074510 0.000000
0.000000 0.172549 0.000000
0.188235 0.172549 0.000000
0.321569 0.172549 0.000000
0.478431 0.172549 0.000000
0.764706 0.172549 0.000000
0.000000 0.337255 0.000000
0.188235 0.337255 0.000000
0.321569 0.337255 0.000000
0.478431 0.337255 0.000000
0.764706 0.337255 0.000000
0.000000 0.705882 0.000000
0.188235 0.705882 0.000000
0.321569 0.705882 0.000000
0.478431 0.705882 0.000000
0.764706 0.705882 0.000000
0.000000 0.000000 0.313725
0.188235 0.000000 0.313725
0.321569 0.000000 0.313725
0.478431 0.000000 0.313725
0.764706 0.000000 0.313725
0.000000 0.074510 0.313725
0.188235 0.074510 0.313725
0.321569 0.074510 0.313725
0.478431 0.074510 0.313725
0.764706 0.074510 0.313725
0.000000 0.172549 0.313725
0.188235 0.172549 0.313725
0.321569 0.172549 0.313725
0.478431 0.172549 0.313725
0.764706 0.172549 0.313725
0.000000 0.337255 0.313725
0.188235 0.337255 0.313725
0.321569 0.337255 0.313725
0.478431 0.337255 0.313725
0.764706 0.337255 0.313725
0.000000 0.705882 0.313725
0.188235 0.705882 0.313725
0.321569 0.705882 0.313725
0.478431 0.705882 0.313725
0.764706 0.705882 0.313725
0.000000 0.000000 0.501961
0.188235 0.000000 0.501961
0.321569 0.000000 0.501961
0.478431 0.000000 0.501961
0.764706 0.000000 0.501961
0.000000 0.074510 0.501961
0.188235 0.074510 0.501961
0.321569 0.074510 0.501961
0.478431 0.074510 0.501961
0.764706 0.074510 0.501961
0.000000 0.172549 0.501961
0.188235 0.172549 0.501961
0.321569 0.172549 0.501961
0.478431 0.172549 0.501961
0.764706 0.172549 0.501961
0.000000 0.337255 0.501961
0.188235 0.337255 0.501961
0.321569 0.337255 0.501961
0.478431 0.337255 0.501961
0.764706 0.337255 0.501961
0.000000 0.705882 0.501961
0.188235 0.705882 0.501961
0.321569 0.705882 0.501961
0.478431 0.705882 0.501961
0.764706 0.705882 0.501961
0.000000 0.000000 0.647059
0.188235 0.000000 0.647059
0.321569 0.000000 0.647059
0.478431 0.000000 0.647059
0.764706 0.000000 0.647059
0.000000 0.074510 0.647059
0.188235 0.074510 0.647059
0.321569 0.074510 0.647059
0.478431 0.074510 0.647059
0.764706 0.074510 0.647059
0.000000 0.172549 0.647059
0.188235 0.172549 0.647059
0.321569 0.172549 0.647059
0.478431 0.172549 0.647059
0.764706 0.172549 0.647059
0.000000 0.337255 0.647059
0.188235 0.337255 0.647059
0.321569 0.337255 0.647059
0.478431 0.337255 0.647059
0.764706 0.337255 0.647059
0.000000 0.705882 0.647059
0.188235 0.705882 0.647059
0.321569 0.705882 0.647059
0.478431 0.705882 0.647059
0.764706 0.705882 0.647059
0.000000 0.000000 0.858824
0.188235 0.000000 0.858824
0.321569 0.000000 0.858824
0.478431 0.000000 0.858824
0.764706 0.000000 0.858824
0.000000 0.074510 0.858824
0.188235 0.074510 0.858824
0.321569 0.074510 0.858824
0.478431 0.074510 0.858824
0.764706 0.074510 0.858824
0.000000 0.172549 0.858824
0.188235 0.172549 0.858824
0.321569 0.172549 0.858824
0.478431 0.172549 0.858824
0.764706 0.172549 0.858824
0.000000 0.337255 0.858824
0.188235 0.337255 0.858824
0.321569 0.337255 0.858824
0.478431 0.337255 0.858824
0.764706 0.337255 0.858824
0.000000 0.705882 0.858824
0.188235 0.705882 0.858824
0.321569 0.705882 0.858824
0.478431 0.705882 0.858824
0.764706 0.705882 0.858824
